X:141
T:Fife Hunt. WM.141
M:C
L:1/8
Q:1/2=100
S:Wm.Mittell’s MS, New Romney,Kent,1799
R:.Reel
O:England
A:Kent
N:Separated from photocopy, reinserted by from Dave Roberts,
N:probably with incorrect position number in MS
Z:vmp.Chris Partington
K:D
g|fdd2AFF2|De2^de3g|fdd2AFF2|Dd2cd3:|!
|:g|fdad bdad|Be2^de3g|fdad bdad|Ad2cd3g|!
fdad bdad|Be2^de3g|faea gbeg|Ad2cd3:|

